!!!COM: Beethoven, Ludwig van
!!!CDT: 1770///-1827///
!!!OTL: Piano Sonata no. 1, mvmt. 4
!!!OMV: Prestissimo
!!!OPS: Op. 2
!!!ONM: No. 1
!!!OMV: No. 4
!!!AGN: Rondo
**kern	**dynam	**kern	**dynam
*Ipiano	*Ipiano	*Ipiano	*Ipiano
*>[A,B,B1,B,B2,C]	*>[A,B,B1,B,B2,C]	*>[A,B,B1,B,B2,C]	*>[A,B,B1,B,B2,C]
*>norep[A,B,B2,C]	*>norep[A,B,B2,C]	*>norep[A,B,B2,C]	*>norep[A,B,B2,C]
*>A	*>A	*>A	*>A
*clefF4	*clefF4	*clefG2	*clefG2
*k[]	*k[]	*k[]	*k[]
*M2/2	*M2/2	*M2/2	*M2/2
*MM192	*MM192	*MM192	*MM192
12F\L	p	2r	.
12A-\	.	.	.
12c\J	.	.	.
12F\L	.	.	.
12A-\	.	.	.
12c\J	.	.	.
=1!|:	=1!|:	=1!|:	=1!|:
*>B	*>B	*>B	*>B
12F\L	.	4f''\ 4a-''\ 4cc''\ 4ff''\	p
12A-\	.	.	.
12c\J	.	.	.
12F\L	.	4e''\ 4g''\ 4b-''\ 4dd-''\ 4ee''\	.
12B-\	.	.	.
12d-\J	.	.	.
=2	=2	=2	=2
12F\L	.	4f''\ 4a-''\ 4cc''\ 4ff''\	.
12c\	.	.	.
12A-\J	.	.	.
12F\L	.	4r	.
12C\	.	.	.
12AA-\J	.	.	.
12FF/L	.	4cc''\ 4ff''\ 4aa-''\ 4ccc''\	f
12AA-/	.	.	.
12C/J	.	.	.
12EE/L	.	4cc''\ 4gg''\ 4bb-''\ 4ccc''\	.
12GG/	.	.	.
12C/J	.	.	.
=3	=3	=3	=3
12FF/L	.	4cc''\ 4ff''\ 4aa-''\ 4ccc''\	.
12AA-/	.	.	.
12C/J	.	.	.
12F\L	.	4r	.
12A-\	.	.	.
12c\J	.	.	.
12F\L	.	4f''\ 4a-''\ 4cc''\ 4ff''\	p
12A-\	.	.	.
12c\J	.	.	.
12F\L	.	4e''\ 4g''\ 4b-''\ 4dd-''\ 4ee''\	.
12B-\	.	.	.
12d-\J	.	.	.
=4	=4	=4	=4
12F\L	.	4f''\ 4a-''\ 4cc''\ 4ff''\	.
12c\	.	.	.
12A-\J	.	.	.
12F\L	.	4r	.
12C\	.	.	.
12AA-\J	.	.	.
12FF/L	.	4cc''\ 4ff''\ 4aa-''\ 4ccc''\	f
12AA-/	.	.	.
12C/J	.	.	.
12EE/L	.	4cc''\ 4gg''\ 4bb-''\ 4ccc''\	.
12GG/	.	.	.
12C/J	.	.	.
=5	=5	=5	=5
*^	*	*	*
12FF/L	2r	.	4cc''\ 4ff''\ 4aa-''\ 4ccc''\	.
12AA-/	.	.	.	.
12C/J	.	.	.	.
12F\L	.	.	4r	.
12A-\	.	.	.	.
12c\J	.	.	.	.
(4d-/	2G\	.	(4ee-'\	p
4B-/)	.	.	4ee-'\)	.
=6	=6	=6	=6	=6
2c/	2A-\	.	(4ee-\	.
.	.	.	4aa-\)	.
(4d-/	2G\	.	(4ee-'\	.
4B-/)	.	.	4ee-'\)	.
=7	=7	=7	=7	=7
2c/	2A-\	.	(4ee-\	.
.	.	.	4aa-\)	.
(4d-/	2G\	.	(4ee-\	.
4B-/)	.	.	4ee\	.
*v	*v	*	*	*
=8	=8	=8	=8
4A-\ (4c\	.	4ff\	.
4E\ 4G\	.	4gg\	.
4F\ 4A-\	.	4aa-\	.
4D-\ 4F\)	.	4bb\	.
=9	=9	=9	=9
*^	*	*	*
2r	4C\ 4E\	.	4ccc\)	.
*v	*v	*	*	*
*clefG2	*clefG2	*	*
2e\	.	4r	.
4c'\	.	4cc'\	p
*^	.	*	*
(4b-/	4g/)	.	4cc'\	.
=10	=10	=10	=10	=10
2a-/	2f\	.	(4cc\	.
.	.	.	4ff\)	.
4b-/	2e\	.	(4cc'\	.
4g/	.	.	4cc'\)	.
=11	=11	=11	=11	=11
2a-/	2f\	.	(4cc\	.
.	.	.	4ff\)	.
*v	*v	*	*	*
*clefF4	*clefF4	*	*
*^	*	*	*
(4B-/	2E\	.	(4cc'\	.
4G/)	.	.	4cc'\)	.
*v	*v	*	*	*
=12	=12	=12	=12
.	.	(ccq/	.
4F\ 4A-\	.	(4.aa-\)	.
2F\ 2A-\	.	.	.
.	.	8gg\	.
.	.	8ff\L	.
.	.	8ee-\	.
4F#\ 4A\	.	8dd\	.
.	.	8cc\J)	.
=13	=13	=13	=13
12G\L	.	4b\	.
12B\	.	.	.
12d\J	.	.	.
12G\L	.	4r	.
12B\	.	.	.
12d\J	.	.	.
12G\L	.	4g''\ 4b''\ 4dd''\ 4gg''\	p
12B\	.	.	.
12d\J	.	.	.
12G\L	.	4f#''\ 4a''\ 4cc''\ 4ee-''\ 4ff#''\	.
12c\	.	.	.
12e-\J	.	.	.
=14	=14	=14	=14
12G\L	.	4g''\ 4b''\ 4dd''\ 4gg''\	.
12d\	.	.	.
12B\J	.	.	.
12G\L	.	4r	.
12D\	.	.	.
12BB\J	.	.	.
12GG/L	.	4b''\ 4dd''\ 4gg''\ 4bb''\	ff
12BB/	.	.	.
12D/J	.	.	.
12GG/L	.	4b''\ 4dd''\ 4gg''\ 4bb''\	.
12BB/	.	.	.
12D/J	.	.	.
=15	=15	=15	=15
12GG/L	.	4b''\ 4dd''\ 4gg''\ 4bb''\	.
12BB/	.	.	.
12D/J	.	.	.
12G\L	.	4r	.
12B\	.	.	.
12d\J	.	.	.
12G\L	.	4g''\ 4b''\ 4dd''\ 4gg''\	p
12B\	.	.	.
12d\J	.	.	.
12G\L	.	4f#''\ 4a-''\ 4cc''\ 4ee-''\ 4ff#''\	.
12c\	.	.	.
12e-\J	.	.	.
=16	=16	=16	=16
12G\L	.	4g''\ 4b''\ 4dd''\ 4gg''\	.
12d\	.	.	.
12B\J	.	.	.
12G\L	.	4r	.
12D\	.	.	.
12BB\J	.	.	.
12GG/L	.	4dd''\ 4gg''\ 4bb''\ 4ddd''\	ff
12BB/	.	.	.
12D/J	.	.	.
12GG/L	.	4dd''\ 4gg''\ 4bb''\ 4ddd''\	.
12BB/	.	.	.
12D/J	.	.	.
=17	=17	=17	=17
12GG/L	.	4dd''\ 4gg''\ 4bb''\ 4ddd''\	.
12BB/	.	.	.
12D/J	.	.	.
12G\L	.	4r	.
12D\	.	.	.
12BB\J	.	.	.
12GG/L	.	4ff''\ 4bb''\ 4ddd''\ 4fff''\	ff
12BB/	.	.	.
12D/J	.	.	.
12GG/L	.	4ff''\ 4bb''\ 4ddd''\ 4fff''\	.
12BB/	.	.	.
12D/J	.	.	.
=18	=18	=18	=18
12GG/L	.	4ff''\ 4bb''\ 4ddd''\ 4fff''\	.
12BB/	.	.	.
12D/J	.	.	.
12G\L	.	4r	.
12D\	.	.	.
12BB\J	.	.	.
12GG/L	.	4ff''\ 4bb''\ 4ddd''\ 4fff''\	ff
12BB/	.	.	.
12D/J	.	.	.
12GG/L	.	4ff''\ 4bb''\ 4ddd''\ 4fff''\	.
12BB/	.	.	.
12D/J	.	.	.
=19	=19	=19	=19
12GG/L	.	4ff''\ 4bb''\ 4ddd''\ 4fff''\	.
12BB/	.	.	.
12D/J	.	.	.
12G\L	.	4r	.
12D\	.	.	.
12BB\J	.	.	.
12GG/L	.	4ff''\ 4bb''\ 4ddd''\ 4fff''\	.
12BB/	.	.	.
12D/J	.	.	.
12G\L	.	4r	.
12D\	.	.	.
12BB\J	.	.	.
=20	=20	=20	=20
4GG/	.	12fff\L	ff
.	.	12eee-\	.
.	.	12ddd\J	.
4r	.	12ccc\L	.
.	.	12bb\	.
.	.	12aa-\J	.
2r	.	12gg\L	.
.	.	12ff\	.
.	.	12ee-\J	.
.	.	12dd\L	.
.	.	12cc\	.
.	.	12b\J	.
=21	=21	=21	=21
2r	.	12a-/L	.
.	.	12g/	.
.	.	12f/J	.
.	.	12e-/L	.
.	.	12d/	.
.	.	12c/J	.
12r	.	4B/	.
(12A-\L	.	.	.
12G\J)	.	.	.
12F\L	.	4r	.
12E-\	.	.	.
12D\J	.	.	.
=22	=22	=22	=22
*M2/2	*M2/2	*M2/2	*M2/2
4C\	.	12r	.
.	.	12e-/L	.
.	.	12c/J	.
(4A-\	.	12a-/L	.
.	.	12e-/	.
.	.	12c/J	.
4G\	.	12g/L	.
.	.	12e-/	.
.	.	12c/J	.
4F#\	.	12f#/L	.
.	.	12e-/	.
.	.	12c/J	.
=23	=23	=23	=23
4G\	.	12a-/L	.
.	.	12e-/	.
.	.	12c/J	.
4A-\	.	12a-/L	.
.	.	12e-/	.
.	.	12c/J	.
4G\	.	12g/L	.
.	.	12e-/	.
.	.	12c/J	.
4F#\)	.	12f#/L	.
.	.	12e-/	.
.	.	12c/J	.
=24	=24	=24	=24
12G\L	.	4g/	.
12c\	.	.	.
12e-\J	.	.	.
12A-\L	.	12ee-\L	.
12c\	.	12cc\	.
12e-\J	.	12a-\J	.
12G\L	.	12ee-\L	.
12c\	.	12cc\	.
12e-\J	.	12g\J	.
12F#\L	.	12ee-\L	.
12c\	.	12cc\	.
12e-\J	.	12f#\J	.
=25	=25	=25	=25
12G\L	.	12ee-\L	.
12c\	.	12cc\	.
12e-\J	.	12g\J	.
12A-\L	.	12ee-\L	.
12c\	.	12cc\	.
12e-\J	.	12a-\J	.
12G\L	.	12ee-\L	.
12c\	.	12cc\	.
12e-\J	.	12g\J	.
12F#\L	.	12ee-\L	.
12c\	.	12cc\	.
12e-\J	.	12f#\J	.
=26	=26	=26	=26
12G\L	.	4ee-\	.
12c\	.	.	.
(12e-\J	.	.	.
8A-\L	.	12aa-\L	.
.	.	12ee-\	.
8a-\J	.	.	.
.	.	12cc\J	.
8F\L	.	12aa-\L	.
.	.	12dd-\	.
8f\	.	.	.
.	.	12cc\J	.
8G\	.	12gg\L	.
.	.	12dd-\	.
8g\J	.	.	.
.	.	12b-\J	.
=27	=27	=27	=27
8E\L	.	12gg\L	.
.	.	12cc\	.
8e\	.	.	.
.	.	12b-\J	.
8F\	.	12ff\L	.
.	.	12cc\	.
8f\J	.	.	.
.	.	12a-\J	.
8BB\L	.	12ff\L	.
.	.	12dd\	.
8B\	.	.	.
.	.	12g\J	.
8C\	.	12ee-\L	.
.	.	12cc\	.
8c\J)	.	.	.
.	.	12g\J	.
=28	=28	=28	=28
(8DD/L	.	12dd/L	.
.	.	12b/	.
8D/	.	.	.
.	.	12f/J	.
8EE-/	.	12cc/L	.
.	.	12g/	.
8E-/J	.	.	.
.	.	12e-/J	.
8FF/L	.	12b/L	.
.	.	12a-/	.
8F/	.	.	.
.	.	12d/J	.
8FF#/	.	12cc/L	.
.	.	12a/	.
8F#/J)	.	.	.
.	.	12e-/J	.
=29	=29	=29	=29
(8GG/L	.	12g/L	.
.	.	12e-/	.
8G/	.	.	.
.	.	12c/J	.
8GG/	.	12g/L	.
.	.	12e-/	.
8G/J	.	.	.
.	.	12c/J	.
8GG/L	.	12g/L	.
.	.	12d/	.
8G/	.	.	.
.	.	12B/J	.
8GG/	.	12g/L	.
.	.	12d/	.
8G/J)	.	.	.
.	.	12B/J	.
=30	=30	=30	=30
4C\	.	12c/L	.
.	.	12e-/	.
.	.	12g/J	.
(8A-\L	.	12cc/L	.
.	.	12a-/	.
8c\J	.	.	.
.	.	12e-/J	.
8F\L	.	12cc/L	.
.	.	12a-/	.
8A-\	.	.	.
.	.	12d-/J	.
8G\	.	12b-/L	.
.	.	12g/	.
8B-\J	.	.	.
.	.	12d-/J	.
=31	=31	=31	=31
8E\L	.	12b-/L	.
.	.	12g/	.
8G\	.	.	.
.	.	12c/J	.
8F\	.	12a-/L	.
.	.	12f/	.
8A-\J	.	.	.
.	.	12c/J	.
8BB/L	.	12g/L	.
.	.	12f/	.
8D/	.	.	.
.	.	12d/J	.
8C/	.	12g/L	.
.	.	12e-/	.
8E-/J)	.	.	.
.	.	12c/J	.
=32	=32	=32	=32
*^	*	*	*
2r	(4DD\	.	12a-/L	.
.	.	.	12B/	.
.	.	.	12G/J	.
.	4EE-\	.	12e-/L	.
.	.	.	12c/	.
.	.	.	12G/J	.
12d/L	4FF\	.	2r	.
12A-/	.	.	.	.
12F/J	.	.	.	.
12c/L	4FF#\)	.	.	.
12A/	.	.	.	.
12E-/J	.	.	.	.
=33	=33	=33	=33	=33
12c/L	8GGG\L	.	1r	.
12G/	.	.	.	.
.	8GG\	.	.	.
12E-/J	.	.	.	.
12c/L	8GGG\	.	.	.
12G/	.	.	.	.
.	8GG\J	.	.	.
12E-/J	.	.	.	.
12B/L	8GGG\L	.	.	.
12G/	.	.	.	.
.	8GG\	.	.	.
12D/J	.	.	.	.
12B/L	8GGG\	.	.	.
12G/	.	.	.	.
.	8GG\J	.	.	.
12D/J	.	.	.	.
*v	*v	*	*	*
=34	=34	=34	=34
12CC/L	.	4c/	.
12GG/	.	.	.
12C/J	.	.	.
12CC/L	.	4r	.
12GG/	.	.	.
12C/J	.	.	.
12CC/L	.	(4e-'/ 4ee-'/	p
12GG/	.	.	.
12C/J	.	.	.
12CC/L	.	4e-'/) 4ee-'/	.
12GG/	.	.	.
12C/J	.	.	.
=35	=35	=35	=35
12DD/L	.	(4d/ 4dd/	.
12FF/	.	.	.
12BB-/J	.	.	.
12DD/L	.	4c/ 4cc/	.
12FF/	.	.	.
12BB-/J	.	.	.
12DD/L	.	4B-/ 4b-/	.
12FF/	.	.	.
12BB-/J	.	.	.
12DD/L	.	4A-/ 4a-/	.
12FF/	.	.	.
12BB-/J	.	.	.
=36	=36	=36	=36
12EE-/L	.	2G/) 2g/	.
12GG/	.	.	.
12BB-/J	.	.	.
12EE-/L	.	.	.
12GG/	.	.	.
12BB-/J	.	.	.
12EE/L	.	4cc'\ (4ccc'\	.
12GG/	.	.	.
12C/J	.	.	.
12EE/L	.	4cc'\ 4ccc'\)	.
12GG/	.	.	.
12C/J	.	.	.
=37	=37	=37	=37
12FF/L	.	4b-\ (4bb-\	.
12AA-/	.	.	.
12C/J	.	.	.
12FF/L	.	4a-\ 4aa-\	.
12AA-/	.	.	.
12C/J	.	.	.
12FF/L	.	4g\ 4gg\	.
12AA-/	.	.	.
12D/J	.	.	.
12FF/L	.	4f\ 4ff\	.
12AA-/	.	.	.
12D/J	.	.	.
=38	=38	=38	=38
12GG/L	.	2e-\ 2ee-\)	.
12BB-/	.	.	.
12E-/J	.	.	.
12GG/L	.	.	.
12BB-/	.	.	.
12E-/J	.	.	.
12GG/L	.	4g'\ (4gg'\	.
12BB-/	.	.	.
12E/J	.	.	.
12GG/L	.	4g'\ 4gg'\)	.
12BB-/	.	.	.
12E/J	.	.	.
=39	=39	=39	=39
12AA-/L	.	4f\ (4ff\	.
12C/	.	.	.
12F/J	.	.	.
12AA-/L	.	4e-\ 4ee-\	.
12C/	.	.	.
12F/J	.	.	.
12AA-/L	.	4d/ 4dd/	.
12C/	.	.	.
12F#/J	.	.	.
12AA-/L	.	4c/ 4cc/	.
12C/	.	.	.
12F#/J	.	.	.
=40	=40	=40	=40
12GG/L	.	2G/ 2g/)	.
12C/	.	.	.
12E-/J	.	.	.
12GG/L	.	.	.
12C/	.	.	.
12E-/J	.	.	.
12GG/L	.	(4G'/ 4g'/	.
12C/	.	.	.
12E-/J	.	.	.
12GG/L	.	4G'/) 4g'/	.
12C/	.	.	.
12E-/J	.	.	.
=41	=41	=41	=41
12GG/L	.	2G/ 2g/	.
12BB/	.	.	.
12D/J	.	.	.
12GG/L	.	.	.
12BB/	.	.	.
12D/J	.	.	.
12GG/L	.	(4G'/ 4g'/	.
12BB/	.	.	.
12D/J	.	.	.
12GG/L	.	4G'/) 4g'/	.
12BB/	.	.	.
12D/J	.	.	.
=42	=42	=42	=42
12CC/L	.	4c/	.
12GG/	.	.	.
12C/J	.	.	.
12CC/L	.	4r	.
12GG/	.	.	.
12C/J	.	.	.
12CC/L	.	(4e-'/ 4ee-'/	.
12GG/	.	.	.
12C/J	.	.	.
12CC/L	.	4e-'/) 4ee-'/	.
12GG/	.	.	.
12C/J	.	.	.
=43	=43	=43	=43
12DD/L	.	(4d/ 4dd/	.
12FF/	.	.	.
12BB-/J	.	.	.
12DD/L	.	4c/ 4cc/	.
12FF/	.	.	.
12BB-/J	.	.	.
(12DD/L	.	4B-/ 4b-/	.
12FF/	.	.	.
12BB-/J)	.	.	.
12DD/L	.	4A-/ 4a-/	.
12FF/	.	.	.
12BB-/J	.	.	.
=44	=44	=44	=44
12EE-/L	.	2G/) 2g/	.
12GG/	.	.	.
12BB-/J	.	.	.
12EE-/L	.	.	.
12GG/	.	.	.
12BB-/J	.	.	.
12EE/L	.	4cc'\ (4ccc'\	.
12GG/	.	.	.
12C/J	.	.	.
12EE/L	.	4cc'\ 4ccc'\)	.
12GG/	.	.	.
12C/J	.	.	.
=45	=45	=45	=45
12FF/L	.	4b-\ (4bb-\	.
12AA-/	.	.	.
12C/J	.	.	.
12FF/L	.	4a-\ 4aa-\	.
12AA-/	.	.	.
12C/J	.	.	.
12FF/L	.	4g\ 4gg\	.
12AA-/	.	.	.
12D/J	.	.	.
12FF/L	.	4f\ 4ff\	.
12AA-/	.	.	.
12D/J	.	.	.
=46	=46	=46	=46
12GG/L	.	2e-\ 2ee-\)	.
12BB-/	.	.	.
12E-/J	.	.	.
12GG/L	.	.	.
12BB-/	.	.	.
12E-/J	.	.	.
12GG/L	.	4g'\ (4gg'\	.
12BB-/	.	.	.
12E/J	.	.	.
12GG/L	.	4g'\ 4gg'\)	.
12BB-/	.	.	.
12E/J	.	.	.
=47	=47	=47	=47
12AA-/L	.	4f\ (4ff\	.
12C/	.	.	.
12F/J	.	.	.
12AA-/L	.	4e-\ 4ee-\	.
12C/	.	.	.
12F/J	.	.	.
12AA-/L	.	4d/ 4dd/	.
12C/	.	.	.
12F#/J	.	.	.
12AA-/L	.	4c/ 4cc/)	.
12C/	.	.	.
12F#/J	.	.	.
=48	=48	=48	=48
12GG/L	.	2G/ 2g/	.
12C/	.	.	.
12E-/J	.	.	.
12GG/L	.	.	.
12C/	.	.	.
12E-/J	.	.	.
12GG/L	.	(4G'/ 4g'/	.
12C/	.	.	.
12E-/J	.	.	.
12GG/L	.	4G'/) 4g'/	.
12C/	.	.	.
12E-/J	.	.	.
=49	=49	=49	=49
12GG/L	.	2G/ 2g/	.
12BB/	.	.	.
12D/J	.	.	.
12GG/L	.	.	.
12BB/	.	.	.
12D/J	.	.	.
12GG/L	.	(4G'/ 4g'/	.
12BB/	.	.	.
12D/J	.	.	.
12GG/L	.	4G'/) 4g'/	.
12BB/	.	.	.
12D/J	.	.	.
=50	=50	=50	=50
*	*	*^	*
12C\L	.	4c/	4r	.
12E-\	.	.	.	.
12G\J	.	.	.	.
4r	.	4r	12c\L	.
.	.	.	12e-\	.
.	.	.	12g\J	ff
4r	.	4cc/ 4ee-/ 4gg/ 4ccc/	12c\L	.
.	.	.	12e-\	.
.	.	.	12g\J	.
4r	.	4b''/ 4dd''/ 4ff''/ 4aa-''/ 4bb''/	12c\L	.
.	.	.	12f\	.
.	.	.	12a-\J	.
=51	=51	=51	=51	=51
4r	.	4cc''/ 4ee-''/ 4gg''/ 4ccc''/	12c\L	.
.	.	.	12g\	.
.	.	.	12e-\J	.
12c\L	.	2.ryy	4r	.
12G\	.	.	.	.
12E-\J	.	.	.	.
12C\L	.	.	4g''\ 4cc''\ 4ee-''\ 4gg''\	ff
12E-\	.	.	.	.
12G\J	.	.	.	.
12GG\L	.	.	4g''\ 4b''\ 4dd''\ 4gg''\	.
12D\	.	.	.	.
12G\J	.	.	.	.
*	*	*v	*v	*
=52	=52	=52	=52
12C\L	.	4g''\ 4cc''\ 4ee-''\ 4gg''\	.
12E-\	.	.	.
12G\J	.	.	.
*	*	*^	*
4r	.	4ryy	12c\L	.
.	.	.	12e-\	.
.	.	.	12g\J	.
4r	.	4cc''/ 4ee-''/ 4gg''/ 4ccc''/	12c\L	.
.	.	.	12e-\	.
.	.	.	12g\J	.
4r	.	4b/ 4dd/ 4ff/ 4aa-/ 4bb/	12c\L	.
.	.	.	12f\	.
.	.	.	12a-\J	.
=53	=53	=53	=53	=53
4r	.	4cc''/ 4ee-''/ 4gg''/ 4ccc''/	12c\L	.
.	.	.	12g\	.
.	.	.	12e-\J	.
*	*	*v	*v	*
12c\L	.	4r	.
12G\	.	.	.
12E-\J	.	.	.
12C\L	.	4g''\ 4cc''\ 4ee-''\ 4gg''\	.
12E-\	.	.	.
12G\J	.	.	.
12GG\L	.	4g''\ 4b''\ 4dd''\ 4gg''\	.
12D\	.	.	.
12G\J	.	.	.
=54	=54	=54	=54
12C\L	.	4g''\ 4cc''\ 4ee-''\ 4gg''\	.
12E-\	.	.	.
12G\J	.	.	.
12c\L	.	4r	.
12G\	.	.	.
12E-\J	.	.	.
12C\L	.	4g''\ 4cc''\ 4ee-''\ 4gg''\	.
12E-\	.	.	.
12G\J	.	.	.
12GG\L	.	4g''\ 4b''\ 4dd''\ 4gg''\	.
12D\	.	.	.
12G\J	.	.	.
=55	=55	=55	=55
12C\L	.	4g''\ 4cc''\ 4ee-''\ 4gg''\	.
12E-\	.	.	.
12G\J	.	.	.
12c\L	.	4r	.
12G\	.	.	.
12E-\J	.	.	.
12C\L	.	4g''\ 4cc''\ 4ee-''\	.
12E-\	.	.	.
12G\J	.	.	.
12c\L	.	4r	.
12G\	.	.	.
12E-\J	.	.	.
=56	=56	=56	=56
*>B1	*>B1	*>B1	*>B1
12C\L	.	4e-''/ 4g''/ 4cc''/	.
12E-\	.	.	.
12G\J	.	.	.
12c\L	.	4r	.
12G\	.	.	.
12E-\J	.	.	.
12C\L	.	4e''/ 4g''/ 4b-''/	.
12E\	.	.	.
12G\J	.	.	.
12c\L	.	4r	.
12G\	.	.	.
12E\J	.	.	.
=57	=57	=57	=57
12F\L	p	4f'/ 4a-'/	.
12A-\	.	.	.
12c\J	.	.	.
12F\L	.	4r	.
12A-\	.	.	.
12c\J	.	.	.
=58:|!	=58:|!	=58:|!	=58:|!
*>B2	*>B2	*>B2	*>B2
4C''/	.	4e-''/ 4g''/ 4cc''/	.
4r	.	4r	.
2r	.	2r	.
=59	=59	=59	=59
4BB-''\ 4D-''\ 4E-''\ 4G''\	.	4d-''/ 4e-''/ 4g''/ 4dd-''/	ff
4r	.	4r	.
4BB-''\ 4D-''\ 4E-''\ 4G''\	.	4d-''/ 4e-''/ 4g''/ 4b-''/	.
4r	.	4r	.
=60	=60	=60	=60
4BB-''\ 4D-''\ 4E-''\ 4G''\	.	4d-''/ 4e-''/ 4g''/	.
4r	.	4r	.
2r	.	2r	.
=61	=61	=61	=61
*>C	*>C	*>C	*>C
4r	.	(1e-	.
4A-\ 4c\	.	.	.
4A-\ 4c\	.	.	.
4A-\ 4c\	.	.	.
=62	=62	=62	=62
4r	.	2a-\	.
4A-\ 4c\ 4e-\	.	.	.
4A-\ 4c\ 4e-\	.	2cc\)	.
4A-\ 4c\ 4e-\	.	.	.
=63	=63	=63	=63
4r	.	2.ee-\	.
4G\ 4B-\ 4e-\	.	.	.
4G\ 4B-\ 4e-\	.	.	.
4G\ 4B-\ 4e-\	.	(4ee-\	.
=64	=64	=64	=64
4r	.	4dd\	.
4G\ 4B-\ 4e-\	.	4ee-\	.
4G\ 4B-\ 4e-\	.	4ff\	.
4G\ 4B-\ 4e-\	.	4ee-'\)	.
=65	=65	=65	=65
4r	.	(4ee-\	.
4F\ 4A-\ 4d-\	.	4dd-\)	.
4F\ 4A-\ 4d-\	.	4r	.
4F\ 4A-\ 4d-\	.	4dd-'\	.
=66	=66	=66	=66
4r	.	(4dd-\	.
4E-\ 4A-\ 4c\	.	4cc\)	.
4E-\ 4A-\ 4c\	.	4r	.
4E-\ 4A-\ 4c\	.	4cc'\	.
=67	=67	=67	=67
4r	.	(8cc\L	.
.	.	8b-\	.
4D-\ 4F\ 4B-\	.	8dd-\	.
.	.	8cc\J	.
4D-\ 4F\ 4B-\	.	8ee-\L	.
.	.	8dd-\	.
4D-\ 4F\ 4B-\	.	8cc\	.
.	.	8b-\J)	.
=68	=68	=68	=68
4r	.	(2a-\	.
4E-\ 4c\	.	.	.
4E-\ 4d-\	.	4cc\	.
4E-\ 4d-\	.	4b-\)	.
=69	=69	=69	=69
4r	.	(2.b-\	.
4A-\ 4d-\	.	.	.
4A-\ 4d-\	.	.	.
4A-\ 4d-\	.	4cc\	.
=70	=70	=70	=70
4r	.	4a-\)	.
(4A-\	.	4r	.
4c\	.	2r	.
4e-\)	.	.	.
*clefG2	*clefG2	*	*
=71	=71	=71	=71
4r	.	2.ee-\	.
4a-\ 4cc\	.	.	.
4a-\ 4cc\	.	.	.
4a-\ 4cc\	.	4ee-'\	.
=72	=72	=72	=72
4r	.	(4gg\	.
4a-\ 4cc\ 4ee-\	.	4aa-\)	.
4a-\ 4cc\ 4ee-\	.	(4bb\	.
4a-\ 4cc\ 4ee-\	.	4ccc\)	.
=73	=73	=73	=73
4r	.	(4ddd\	.
4g\ 4b-\ 4ee-\	.	4eee-\)	.
4g\ 4b-\ 4ee-\	.	4r	.
4g\ 4b-\ 4ee-\	.	(4eee-\	.
=74	=74	=74	=74
4r	.	4ddd\	.
4g\ 4b-\ 4ee-\	.	4eee-\	.
4g\ 4b-\ 4ee-\	.	4fff\	.
4g\ 4b-\ 4ee-\	.	4eee-'\)	.
=75	=75	=75	=75
4r	.	(4eee-\	.
4f/ 4a-/ 4dd-/	.	4ddd-\)	.
4f/ 4a-/ 4dd-/	.	4r	.
4f/ 4a-/ 4dd-/	.	4ddd-'\	.
=76	=76	=76	=76
4r	.	(4ddd-\	.
4e-/ 4a/ 4cc/	.	4ccc\)	.
4e-/ 4a/ 4cc/	.	4r	.
4e-/ 4a/ 4cc/	.	4ccc'\	.
=77	=77	=77	=77
4r	.	(8ccc\L	.
.	.	8bb-\	.
4d-/ 4f/ 4b-/	.	8ddd-\	.
.	.	8ccc\J	.
4d-/ 4f/ 4b-/	.	8eee-\L	.
.	.	8ddd-\	.
4d-/ 4f/ 4b-/	.	8ccc\	.
.	.	8bb-\J)	.
=78	=78	=78	=78
4r	.	(2aa-\	.
4e-/ 4cc/	.	.	.
4e-/ 4dd-/	.	4ccc\	.
4e-/ 4dd-/	.	4bb-\)	.
=79	=79	=79	=79
*	*	*^	*
4r	.	(2.bb-/	1dd-	.
(4g/	.	.	.	.
4a-/	.	.	.	.
4g/	.	4ccc/	.	.
=80	=80	=80	=80	=80
4a-/	.	4aa-/)	4cc\	.
4e-/	.	2.ryy	4r	.
4c/	.	.	4r	.
4A-/)	.	.	4ee-'\	.
*	*	*v	*v	*
=81	=81	=81	=81
4r	.	(4ff\	.
4G/ 4B-/ 4e-/	.	4ff\	.
4G/ 4B-/ 4e-/	.	4gg\	.
4G/ 4B-/ 4e-/	.	4aa-\	.
=82	=82	=82	=82
4r	.	4bb-\	.
4B-/ 4d-/ 4e-/	.	4gg\	.
4B-/ 4d-/ 4e-/	.	4ee-\	.
4B-/ 4d-/ 4e-/	.	4dd-\)	.
=83	=83	=83	=83
4r	.	(2.ee-\	.
4A-/ 4c/ 4e-/	.	.	.
4A-/ 4c/ 4e-/	.	.	.
4A-/ 4c/ 4e-/	.	4dd-\)	.
=84	=84	=84	=84
4r	.	4cc\	.
4c/ 4e-/ 4a-/	.	4r	.
4c/ 4e-/ 4a-/	.	4r	.
4c/ 4e-/ 4a-/	.	4ee-\	.
=85	=85	=85	=85
4r	.	(8ee-\L	.
.	.	8ff\	.
4B-/ 4e-/ 4g/	.	8ee-\	.
.	.	8dd\J	.
4B-/ 4e-/ 4g/	.	8ee-\L	.
.	.	8ff\	.
4B-/ 4e-/ 4g/	.	8gg\	.
.	.	8aa-\J	.
=86	=86	=86	=86
4r	.	8aa\L	.
.	.	8bb-\	.
4d-/ 4e-/ 4b-/	.	8ccc\	.
.	.	8bb-\J	.
4d-/ 4e-/ 4b-/	.	8aa-\L	.
.	.	8gg\	.
4d-/ 4e-/ 4b-/	.	8ff\	.
.	.	8ee-\J)	.
*clefF4	*clefF4	*	*
=87	=87	=87	=87
4r	.	2ee-\	.
4E-\ (4G\	.	.	.
4F\ 4A-\	.	2dd-\	.
4G\ 4B-\	.	.	.
=88	=88	=88	=88
4A-\ 4c\	.	4cc\	.
4B-\ 4d-\	.	4r	.
4c\ 4e-\	.	2r	.
4B-\ 4d-\)	.	.	.
=89	=89	=89	=89
4r	.	1e- (1ee-	.
4A-\ 4c\	.	.	.
4A-\ 4c\	.	.	.
4A-\ 4c\	.	.	.
=90	=90	=90	=90
4r	.	2a-\ 2aa-\	.
4G-\ 4A-\ 4e-\	.	.	.
4G-\ 4A-\ 4e-\	.	2cc\ 2ccc\)	.
4G-\ 4A-\ 4e-\	.	.	.
=91	=91	=91	=91
4r	.	4ee-\ (4eee-\	.
4F\ 4A-\ 4d-\	.	4dd-\ 4ddd-\)	.
4F\ 4A-\ 4d-\	.	4r	.
4F\ 4A-\ 4d-\	.	4dd-'\ 4ddd-'\	.
=92	=92	=92	=92
4r	.	4dd-\ (4ddd-\	.
4E-\ 4G-\ 4A\	.	4cc\ 4ccc\)	.
4E-\ 4G-\ 4A\	.	4r	.
4E-\ 4G-\ 4A\	.	4cc'\ 4ccc'\	.
=93	=93	=93	=93
4r	.	4cc\ (4ccc\	.
4D-\ 4F\ 4B-\	.	4b-\ 4bb-\	.
4D-\ 4F\ 4B-\	.	4ff\ 4fff\	.
4D-\ 4F\ 4B-\	.	4ee-\ 4eee-\)	.
=94	=94	=94	=94
4r	.	4ee-\ (4eee-\	.
4E-\ 4G\ 4d-\	.	4dd-\ 4ddd-\	.
4E-\ 4G\ 4d-\	.	4cc\ 4ccc\	.
4E-\ 4G\ 4d-\	.	4b-\ 4bb-\)	.
=95	=95	=95	=95
4r	.	2.b-\ (2.bb-\	.
4A-\ 4d-\	.	.	.
4A-\ 4d-\	.	.	.
4A-\ 4d-\	.	4cc\ 4ccc\	.
=96	=96	=96	=96
4r	.	4a-\ 4aa-\)	.
4A-\ 4c\	.	4r	.
4c\ 4e-\	.	4r	.
4A-\ 4c\	.	4ee-\	.
=97	=97	=97	=97
4r	.	(4ee-\	.
4G\ 4B-\ 4e-\	.	4ff\	.
4G\ 4B-\ 4e-\	.	4gg\	.
4G\ 4B-\ 4e-\	.	4aa-\	.
=98	=98	=98	=98
4r	.	4bb-\	.
4B-\ 4d-\ 4e-\	.	4gg\	.
4B-\ 4d-\ 4e-\	.	4ee-\	.
4B-\ 4d-\ 4e-\	.	4dd-\)	.
=99	=99	=99	=99
4r	.	(2.ee-\	.
4A-\ 4c\ 4e-\	.	.	.
4A-\ 4c\ 4e-\	.	.	.
4A-\ 4c\ 4e-\	.	4dd-\)	.
*clefG2	*clefG2	*	*
=100	=100	=100	=100
4r	.	4cc\	.
4c/ 4e-/ 4a-/	.	4r	.
4c/ 4e-/ 4a-/	.	4r	.
4c/ 4e-/ 4a-/	.	4ee-\	.
=101	=101	=101	=101
4r	.	(8ee-\L	.
.	.	8ff\	.
4B-/ 4e-/ 4g/	.	8ee-\	.
.	.	8dd\J	.
4B-/ 4e-/ 4g/	.	8ee-\L	.
.	.	8ff\	.
4B-/ 4e-/ 4g/	.	8gg\	.
.	.	8aa-\J	.
=102	=102	=102	=102
4r	.	8bb-\L	.
.	.	8bb\	.
4d-/ 4e-/ 4b-/	.	8ccc\	.
.	.	8ddd-\J	.
4d-/ 4e-/ 4b-/	.	8ddd-\L	.
.	.	8eee\	.
4d-/ 4e-/ 4b-/	.	8fff\	.
.	.	8eee\J)	.
*clefF4	*clefF4	*	*
=103	=103	=103	=103
4r	.	(2eee-\	.
4E-\ (4G\	.	.	.
4F\ 4A-\	.	2ddd-\)	.
4G\ 4B-\)	.	.	.
=104	=104	=104	=104
4A-\ (4c\	.	4ccc\	.
4B-\ 4d-\	.	4r	.
4c\ 4e-\	.	2r	.
4B-\ 4d-\)	.	.	.
=105	=105	=105	=105
4r	.	1e- (1ee-	.
4A-\ 4c\	.	.	.
4A-\ 4c\	.	.	.
4A-\ 4c\	.	.	.
=106	=106	=106	=106
4r	.	2a-\ 2aa-\	.
4G-\ 4A-\ 4e-\	.	.	.
4G-\ 4A-\ 4e-\	.	2cc\ 2ccc\)	.
4G-\ 4A-\ 4e-\	.	.	.
=107	=107	=107	=107
4r	.	4ee-\ (4eee-\	.
4F\ 4A-\ 4d-\	.	4dd-\ 4ddd-\)	.
4F\ 4A-\ 4d-\	.	4r	.
4F\ 4A-\ 4d-\	.	4dd-'\ 4ddd-'\	.
=108	=108	=108	=108
4r	.	4dd-\ (4ddd-\	.
4E-\ 4G-\ 4A\	.	4cc\ 4ccc\)	.
4E-\ 4G-\ 4A\	.	4r	.
4E-\ 4G-\ 4A\	.	4cc'\ 4ccc'\	.
=109	=109	=109	=109
4r	.	4cc\ (4ccc\	.
4D-\ 4F\ 4B-\	.	4b-\ 4bb-\	.
4D-\ 4F\ 4B-\	.	4ff\ 4fff\	.
4D-\ 4F\ 4B-\	.	4ee-\ 4eee-\)	.
=110	=110	=110	=110
4r	.	4ee-\ (4eee-\	.
4E-\ 4G\ 4d-\	.	4dd-\ 4ddd-\	.
4E-\ 4G\ 4d-\	.	4cc\ 4ccc\	.
4E-\ 4G\ 4d-\	.	4b-\ 4bb-\)	.
=111	=111	=111	=111
12AA-/L	.	4a-\ 4aa-\	.
12C/	.	.	.
12E-/J	.	.	.
12AA-/L	.	4r	.
12C/	.	.	.
12E-/J	.	.	.
12AA-/L	.	4c'/ 4cc'/	pp
12C/	.	.	.
12E-/J	.	.	.
12AA-/L	.	4B'/ 4b'/	.
12C/	.	.	.
12E-/J	.	.	.
=112	=112	=112	=112
12AA-/L	.	4c'/ 4cc'/	.
12C/	.	.	.
12E-/J	.	.	.
12AA-/L	.	4r	.
12C/	.	.	.
12E-/J	.	.	.
12AA-/L	.	4c'/ 4cc'/	.
12C/	.	.	.
12E-/J	.	.	.
12AA-/L	.	4B'/ 4b'/	.
12C/	.	.	.
12E-/J	.	.	.
=113	=113	=113	=113
4AA-/	.	(1cc	.
4A-\ 4c\ 4e-\	.	.	.
4A-\ 4c\ 4e-\	.	.	.
4A-\ 4c\ 4e-\	.	.	.
=114	=114	=114	=114
4A-\ 4c\ 4e-\	.	2.ccc\	.
4A-\ 4c\ 4e-\	.	.	.
4A-\ 4c\ 4e-\	.	.	.
4A-\ 4c\ 4e-\	.	4cc\	.
=115	=115	=115	=115
12GG/L	.	4b-\)	.
12C/	.	.	.
12E/J	.	.	.
12GG/L	.	4r	.
12C/	.	.	.
12E/J	.	.	.
12GG/L	.	4B-'/ 4b-'/	pp
12C/	.	.	.
12E/J	.	.	.
12GG/L	.	4A'/ 4a'/	.
12C/	.	.	.
12E/J	.	.	.
=116	=116	=116	=116
12GG/L	.	4B-'/ 4b-'/	.
12C/	.	.	.
12E/J	.	.	.
12GG/L	.	4r	.
12C/	.	.	.
12E/J	.	.	.
12GG/L	.	4B-'/ 4b-'/	.
12C/	.	.	.
12E/J	.	.	.
12GG/L	.	4A'/ 4a'/	.
12C/	.	.	.
12E/J	.	.	.
=117	=117	=117	=117
4GG/	.	(1b-	.
4G\ 4B-\ 4e\	.	.	.
4G\ 4B-\ 4e\	.	.	.
4G\ 4B-\ 4e\	.	.	.
=118	=118	=118	=118
4G\ 4B-\ 4e\	.	2.bb-\	.
4G\ 4B-\ 4e\	.	.	.
4G\ 4B-\ 4e\	.	.	.
4G\ 4B-\ 4e\	.	4b-\	.
=119	=119	=119	=119
12FF/L	.	4a-\)	.
12C/	.	.	.
12F/J	.	.	.
12FF/L	.	4r	.
12C/	.	.	.
12F/J	.	.	.
12FF/L	.	4A-'/ 4a-'/	pp
12C/	.	.	.
12F/J	.	.	.
12FF/L	.	4G'/ 4g'/	.
12C/	.	.	.
12F/J	.	.	.
=120	=120	=120	=120
12FF/L	.	4A-'/ 4a-'/	.
12C/	.	.	.
12F/J	.	.	.
12FF/L	.	4r	.
12C/	.	.	.
12F/J	.	.	.
12FF/L	.	4A-'/ 4a-'/	.
12C/	.	.	.
12F/J	.	.	.
12FF/L	.	4G'/ 4g'/	.
12C/	.	.	.
12F/J	.	.	.
=121	=121	=121	=121
4FF/	.	1a-	.
4F\ 4A-\	.	.	.
4F\ 4A-\	.	.	.
4F\ 4A-\	.	.	.
=122	=122	=122	=122
*^	*	*	*
4F/ 4A-/	1D-	.	(2.aa-\	.
4F/ 4A-/	.	.	.	.
4F/ 4A-/	.	.	.	.
4F/ 4A-/	.	.	4a-\)	.
=123	=123	=123	=123	=123
4G-/ 4A-/	1C	.	(2.aa-\	.
4G-/ 4A-/	.	.	.	.
4G-/ 4A-/	.	.	.	.
4G-/ 4A-/	.	.	4a-\)	.
=124	=124	=124	=124	=124
4G-/ 4A-/	1E-	.	(2.aa-\	.
4G-/ 4A-/	.	.	.	.
4G-/ 4A-/	.	.	.	.
4G-/ 4A-/	.	.	4a-\)	.
=125	=125	=125	=125	=125
4F/ 4A-/	1D-	.	(2.aa-\	.
4F/ 4A-/	.	.	.	.
4F/ 4A-/	.	.	.	.
4F/ 4A-/	.	.	4a-\)	.
=126	=126	=126	=126	=126
4E-/ 4F/	1C	.	(2.aa\	.
4E-/ 4F/	.	.	.	.
4E-/ 4F/	.	.	.	.
4E-/ 4F/	.	.	4a\)	.
=127	=127	=127	=127	=127
*	*	*	*^	*
4D-/ 4F/	1BB-	.	2.bb-/	4r	ff
4D-/ 4F/	.	.	.	2b-\	.
4D-/ 4F/	.	.	.	.	.
4D-/ 4F/	.	.	4aa-/	4a-\	.
*	*	*	*v	*v	*
=128	=128	=128	=128	=128
4r	2BB-\	.	(4gg\	.
4D-/ 4G/	.	.	4g/	.
4r	2BB\	.	4ff\	.
4D/ 4G/	.	.	4f/)	.
*v	*v	*	*	*
=129	=129	=129	=129
12C\L	.	4ee\	.
12E\	.	.	.
12G\J	.	.	.
4r	.	12c/L	p
.	.	12e/	.
.	.	12g/J	.
4c'\	.	12cc/L	.
.	.	12g/	.
.	.	12e/J	.
4c'\	.	12b/L	.
.	.	12a-/	.
.	.	12f/J	.
=130	=130	=130	=130
4c'\	.	12cc/L	.
.	.	12g/	.
.	.	12e/J	.
4r	.	12c/L	.
.	.	12g/	.
.	.	12e/J	.
4C'/	.	12r	.
.	.	12g/L	.
.	.	12e/J	.
4BB'/	.	12r	.
.	.	12a-/L	.
.	.	12f/J	.
=131	=131	=131	=131
12C\L	.	4r	.
12E\	.	.	.
12G\J	.	.	.
4r	.	12c/L	.
.	.	12e/	.
.	.	12g/J	.
4c'\	.	12cc/L	.
.	.	12g/	.
.	.	12e/J	.
4c'\	.	12b/L	.
.	.	12a-/	.
.	.	12f/J	.
=132	=132	=132	=132
4c'\	.	12cc/L	.
.	.	12g/	.
.	.	12e/J	.
4r	.	12c/L	.
.	.	12g/	.
.	.	12e/J	.
4C'/	.	12r	.
.	.	12g/L	.
.	.	12e/J	.
4BB'/	.	12r	.
.	.	12a-/L	.
.	.	12f/J	.
=133	=133	=133	=133
*^	*	*	*
2r	[1C	.	12r	.
.	.	.	12g/L	.
.	.	.	12e/J	.
.	.	.	12cc/L	.
.	.	.	12g/	.
.	.	.	12e/J	.
*	*	*	*^	*
(4B-/	.	.	4dd-/	(12dd-\L	.
.	.	.	.	12g\	.
.	.	.	.	12e\J	.
4A/	.	.	4cc/	12cc\L	.
.	.	.	.	12g\	.
.	.	.	.	12e\J	.
=134	=134	=134	=134	=134	=134
4B-/)	4C\]	.	4dd-/	12dd-\L)	.
.	.	.	.	12g\	.
.	.	.	.	12e\J	.
4r	[2.C\	.	12ryy	12r	.
.	.	.	4dd-/	(12dd-\L	.
.	.	.	.	12g\	.
(4B-/	.	.	.	12e\J	.
.	.	.	6ryy	12g\L	.
.	.	.	.	12e\J	.
4A/	.	.	4cc/	12cc\L	.
.	.	.	.	12g\	.
.	.	.	.	12e\J	.
=135	=135	=135	=135	=135	=135
4B-/)	4C\]	.	4dd-/	12dd-\L)	.
.	.	.	.	12g\	.
.	.	.	.	12e\J	.
4r	(2C\	.	4ryy	12r	.
.	.	.	.	12g\L	.
.	.	.	.	12e\J	.
4B-/	.	.	(4dd-/	12dd-\L	.
.	.	.	.	12g\	.
.	.	.	.	12e\J	.
*v	*v	*	*	*	*
4A/	.	4cc/	12cc\L	.
.	.	.	12g\	.
.	.	.	12e\J	.
=136	=136	=136	=136	=136
1C) &(1B-&)	.	4dd-/	12dd-\L	.
.	.	.	12g\	.
.	.	.	12e\J	.
.	.	4cc/	12cc\L	.
.	.	.	12g\	.
.	.	.	12e\J	.
.	.	4dd-/	12dd-\L	.
.	.	.	12g\	.
.	.	.	12e\J	.
.	.	4cc/	12cc\L	.
.	.	.	12g\	.
.	.	.	12e\J	.
*	*	*v	*v	*
=137	=137	=137	=137
[1C 1G	.	12dd-/L	.
.	.	12g/	.
.	.	12e/J	.
.	.	12cc/L	.
.	.	12g/	.
.	.	12e/J	.
.	.	12dd-/L	pp
.	.	12g/	.
.	.	12e/J	.
.	.	12cc/L	.
.	.	12g/	.
.	.	12e/J)	.
=138	=138	=138	=138
1C] 1E	.	12dd-/L	.
.	.	12g/	.
.	.	12e/J	.
.	.	12cc/L	.
.	.	12g/	.
.	.	12e/J	.
.	.	12dd-/L	pp
.	.	12g/	.
.	.	12e/J	.
.	.	12cc/L	.
.	.	12g/	.
.	.	12e/J	.
=139	=139	=139	=139
1C 1B-	.	12dd-/L	.
.	.	12g/	.
.	.	12e/J	.
.	.	12cc/L	.
.	.	12g/	.
.	.	12e/J	.
.	.	12dd-/L	.
.	.	12g/	.
.	.	12e/J	.
.	.	12cc/L	.
.	.	12g/	.
.	.	12e/J	.
=140	=140	=140	=140
12F\L	.	4f/	f
12A-\	.	.	.
12c\J	.	.	.
12F\L	.	4r	.
12A-\	.	.	.
12c\J	.	.	.
12F\L	.	4f''\ 4a-''\ 4cc''\ 4ff''\	.
12A-\	.	.	.
12c\J	.	.	.
12F\L	.	4e''\ 4g''\ 4b-''\ 4dd-''\ 4ee''\	.
12B-\	.	.	.
12d-\J	.	.	.
=141	=141	=141	=141
12F\L	.	4f''\ 4a-''\ 4cc''\ 4ff''\	.
12c\	.	.	.
12A-'\J	.	.	.
12F\L	.	4r	.
12C\	.	.	.
12AA-\J	.	.	.
12FF/L	.	4cc''\ 4ff''\ 4aa-''\ 4ccc''\	.
12AA-/	.	.	.
12C/J	.	.	.
12EE/L	.	4cc''\ 4gg''\ 4bb-''\ 4ccc''\	.
12GG/	.	.	.
12C/J	.	.	.
=142	=142	=142	=142
12FF/L	.	4cc\ 4ff\ 4aa-\ 4ccc\	.
12AA-/	.	.	.
12C/J	.	.	.
12F\L	.	4r	.
12A-\	.	.	.
12c\J	.	.	.
(12F\L	.	4f''\ 4a-''\ 4cc''\ 4ff''\	.
12A-\)	.	.	.
12c\J	.	.	.
12F\L	.	4e''\ 4g''\ 4b-''\ 4dd-''\ 4ee''\	.
12B-\	.	.	.
12d-\J	.	.	.
=143	=143	=143	=143
12F\L	.	4f\ 4a-\ 4cc\ 4ff\	.
12c\	.	.	.
12A-\J	.	.	.
12F\L	.	4r	.
12C\	.	.	.
12AA-\J	.	.	.
12FF/L	.	4cc''\ 4ff''\ 4aa-''\ 4ccc''\	.
12AA-/	.	.	.
12C/J	.	.	.
12EE/L	.	4cc''\ 4gg''\ 4bb-''\ 4ccc''\	.
12GG/	.	.	.
12C/J	.	.	.
=144	=144	=144	=144
12FF/L	.	4cc''\ 4ff''\ 4aa-''\ 4ccc''\	.
12AA-/	.	.	.
12C/J	.	.	.
12F\L	.	4r	.
12A-\	.	.	.
12c\J	.	.	.
*^	*	*	*
2G\	(4d-/	.	(4ee-'\	p
.	4B-/)	.	4ee-'\)	.
=145	=145	=145	=145	=145
2c/	2A-\	.	(4ee-\	.
.	.	.	4aa-\)	.
(4d-/	2G\	.	(4ee-'\	.
4B-/)	.	.	4ee-'\)	.
=146	=146	=146	=146	=146
2c/	2A-\	.	(4ee-\	.
.	.	.	4aa-\)	.
(4d-/	2G\	.	(4ee-\	.
4B-/	.	.	4ee\	.
=147	=147	=147	=147	=147
4c/	4A-\	.	4ff\	.
4G/	4E\	.	4gg\	.
4A-/	4F\	.	4aa-\	.
4F/)	4D-\	.	4bb\	.
=148	=148	=148	=148	=148
4E/	4C\	.	4ccc\)	.
*v	*v	*	*	*
4c/	.	4r	.
*clefG2	*clefG2	*	*
*^	*	*	*
(4b-/	2e\	.	(4cc'\	.
4g/)	.	.	4cc'\)	.
=149	=149	=149	=149	=149
2f\	2a-/	.	(4cc\	.
.	.	.	4ff\)	.
*v	*v	*	*	*
*clefF4	*clefF4	*	*
(4c'\	.	8r	.
.	.	(8ddd-\L	.
4c'\)	.	8ccc\	.
.	.	8bb-\J)	.
=150	=150	=150	=150
*^	*	*	*
(4c\	2r	.	(8bb-\L	.
.	.	.	8aa-\	.
4f\)	.	.	8gg\	.
.	.	.	8ff\J)	.
*v	*v	*	*	*
*clefG2	*clefG2	*	*
*^	*	*	*
(4b-/	2e\	.	(4cc'\	.
4g/)	.	.	4cc'\)	.
*v	*v	*	*	*
=151	=151	=151	=151
2f/ 2a-/	.	(4cc\	.
.	.	bq/LL	.
.	.	ccq/JJ	.
.	.	4ff\)	.
*clefF4	*clefF4	*	*
4c'\	.	8r	.
.	.	(8ddd-\L	.
4c'\	.	8ccc\	.
.	.	8bb-\J)	.
=152	=152	=152	=152
(4c\	.	(8bb-\L	.
.	.	8aa-\	.
Bq/LL	.	.	.
cq/JJ	.	.	.
4f\)	.	8gg\	.
.	.	8ff\J)	.
4E\ 4G\	.	8r	.
.	.	(8ddd-\L	.
4E\ 4G\	.	8ccc\	.
.	.	8bb-\J)	.
=153	=153	=153	=153
4F\ 4A-\	.	(8bb-\L	.
.	.	8aa-\	.
4r	.	8gg\	.
.	.	8ff\J	.
4D-\ 4F\	.	8ee-\L	.
.	.	8dd-\	.
4r	.	8cc\	.
.	.	8b\J)	.
=154	=154	=154	=154
12C\L	.	4cc\	.
12E\	.	.	.
12G\J	.	.	.
12C\L	.	4r	.
12E\	.	.	.
12G\J	.	.	.
12C\L	.	4c''/ 4e''/ 4g''/ 4cc''/	p
12E\	.	.	.
12G\J	.	.	.
12C\L	.	4B''/ 4d-''/ 4f''/ 4a-''/ 4b''/	.
12F\	.	.	.
12A-\J	.	.	.
=155	=155	=155	=155
12C\L	.	4c''/ 4e''/ 4g''/ 4cc''/	.
12G\	.	.	.
12E\J	.	.	.
12C/L	.	4r	.
12GG/	.	.	.
12EE/J	.	.	.
12CC/L	.	4e''/ 4g''/ 4cc''/ 4ee''/	f
12EE/	.	.	.
12GG/J	.	.	.
12CC/L	.	4e''/ 4g''/ 4cc''/ 4ee''/	.
12EE/	.	.	.
12GG/J	.	.	.
=156	=156	=156	=156
12CC/L	.	4e''/ 4g''/ 4cc''/ 4ee''/	.
12EE/	.	.	.
12GG/J	.	.	.
12C\L	.	4r	.
12E\	.	.	.
12G\J	.	.	.
12C\L	.	4c''/ 4e''/ 4g''/ 4cc''/	p
12E\	.	.	.
12G\J	.	.	.
12C\L	.	4B''/ 4d''/ 4f''/ 4a-''/ 4b''/	.
12F\	.	.	.
12A-\J	.	.	.
=157	=157	=157	=157
12C\L	.	4c''/ 4e''/ 4g''/ 4cc''/	.
12G\	.	.	.
12E\J	.	.	.
12C/L	.	4r	.
12GG/	.	.	.
12EE/J	.	.	.
12CC/L	.	4g''\ 4cc''\ 4ee''\ 4gg''\	f
12EE/	.	.	.
12GG/J	.	.	.
12CC/L	.	4g''\ 4cc''\ 4gg''\	.
12EE/	.	.	.
12GG/J	.	.	.
=158	=158	=158	=158
12CC/L	.	4g''\ 4cc''\ 4ee''\ 4gg''\	.
12EE/	.	.	.
12GG/J	.	.	.
12C/L	.	4r	.
12GG/	.	.	.
12EE/J	.	.	.
12CC/L	.	4b-''\ 4ee''\ 4gg''\ 4bb-''\	f
12EE/	.	.	.
12GG/J	.	.	.
12CC/L	.	4b-''\ 4ee''\ 4gg''\ 4bb-''\	.
12EE/	.	.	.
12GG/J	.	.	.
=159	=159	=159	=159
12CC/L	.	4b-''\ 4ee''\ 4gg''\ 4bb-''\	.
12EE/	.	.	.
12GG/J	.	.	.
12C/L	.	4r	.
12GG/	.	.	.
12EE/J	.	.	.
12CC/L	.	4b-''\ 4ee''\ 4gg''\ 4bb-''\	ff
12EE/	.	.	.
12GG/J	.	.	.
12CC/L	.	4b-''\ 4ee''\ 4gg''\ 4bb-''\	.
12EE/	.	.	.
12GG/J	.	.	.
=160	=160	=160	=160
12CC/L	.	4b-''\ 4ee''\ 4gg''\ 4bb-''\	.
12EE/	.	.	.
12GG/J	.	.	.
12C/L	.	4r	.
12GG/	.	.	.
12EE/J	.	.	.
12CC/L	.	4b-''\ 4ee''\ 4gg''\ 4bb-''\	.
12EE/	.	.	.
12GG/J	.	.	.
12C/L	.	4r	.
12GG/	.	.	.
12EE/J	.	.	.
=161	=161	=161	=161
4CC/	.	12bb-\L	.
.	.	12aa-\	.
.	.	12gg\J	.
4r	.	12ff\L	.
.	.	12ee\	.
.	.	12dd-\J	.
2r	.	12cc/L	.
.	.	12b-/	.
.	.	12a-/J	.
.	.	12g/L	.
.	.	12f/	.
.	.	12e/J	.
=162	=162	=162	=162
4r	.	12d-/L	.
.	.	12c/	.
.	.	12B-/J	.
12A-/L	.	4r	.
12G/	.	.	.
12F/J	.	.	.
*^	*	*	*
4E/	12r	.	4r	.
.	12D-\L	.	.	.
.	12C\J	.	.	.
4r	12BB-\L	.	4r	.
.	12AA-\	.	.	.
.	12GG\J	.	.	.
*v	*v	*	*	*
=163	=163	=163	=163
4FF/	.	12r	.
.	.	12f/L	.
.	.	12a-/J	.
(4D-/	.	12d-/L	.
.	.	12f/	.
.	.	12a-/J	.
4C/	.	12c/L	.
.	.	12f/	.
.	.	12a-/J	.
4BB/	.	12B/L	.
.	.	12f/	.
.	.	12a-/J	.
=164	=164	=164	=164
4C/	.	12c/L	.
.	.	12f/	.
.	.	12a-/J	.
4D-/	.	12d-/L	.
.	.	12f/	.
.	.	12a-/J	.
4C/	.	12c/L	.
.	.	12f/	.
.	.	12a-/J	.
4BB/	.	12B/L	.
.	.	12f/	.
.	.	12a-/J	.
=165	=165	=165	=165
4C/)	.	12c/L	.
.	.	12f/	.
.	.	12a-/J	.
4D-\ (4d-\	.	12dd-/L	.
.	.	12a-/	.
.	.	12f/J	.
4C\ 4c\	.	12cc/L	.
.	.	12a-/	.
.	.	12f/J	.
4BB\ 4B\)	.	12b/L	.
.	.	12a-/	.
.	.	12f/J	.
=166	=166	=166	=166
4C\ (4c\	.	12cc/L	.
.	.	12a-/	.
.	.	12f/J	.
4D-\ 4d-\	.	12dd-/L	.
.	.	12a-/	.
.	.	12f/J	.
4C\ 4c\	.	12cc/L	.
.	.	12a-/	.
.	.	12f/J	.
4BB\ 4B\)	.	12b/L	.
.	.	12a-/	.
.	.	12f/J	.
=167	=167	=167	=167
4C\ (4c\	.	12cc\L	.
.	.	12a-\	.
.	.	12f\J	.
4d-\	.	12ff\L	.
.	.	12a-\	.
.	.	12f\J	.
4d\	.	12ff\L	.
.	.	12b-\	.
.	.	12a-\J	.
4e-\)	.	12ee-\L	.
.	.	12b-\	.
.	.	12g-\J	.
=168	=168	=168	=168
(4A\	.	12ee-/L	.
.	.	12cc/	.
.	.	12f/J	.
4B-\	.	12dd-/L	.
.	.	12b-/	.
.	.	12f/J	.
4G\	.	12dd-/L	.
.	.	12b-/	.
.	.	12e/J	.
4A-\)	.	12cc/L	.
.	.	12a-/	.
.	.	12f/J	.
=169	=169	=169	=169
(4E\	.	12b-/L	.
.	.	12g/	.
.	.	12c/J	.
4F\	.	12a-/L	.
.	.	12f/	.
.	.	12c/J	.
4BB-/	.	12g/L	.
.	.	12d-/	.
.	.	12B-/J	.
4BB/)	.	12f/L	.
.	.	12d/	.
.	.	12A-/J	.
=170	=170	=170	=170
(8CC/L	.	12f/L	.
.	.	12c/	.
8C/	.	.	.
.	.	12A-/J	.
8CC/	.	12f/L	.
.	.	12c/	.
8C/J	.	.	.
.	.	12A-/J	.
8CC/L	.	12e/L	.
.	.	12c/	.
8C/	.	.	.
.	.	12G/J	.
8CC/	.	12e/L	.
.	.	12c/	.
8C/J	.	.	.
.	.	12G/J	.
=171	=171	=171	=171
4FF/)	.	12f\L	.
.	.	12a-\	.
.	.	12cc\J	.
(8F\L	.	12ff\L	.
.	.	12cc\	.
8f\J	.	.	.
.	.	12a-\J	.
8D\L	.	12ff\L	.
.	.	12b-\	.
8d\	.	.	.
.	.	12a-\J	.
8E-\	.	12ee-\L	.
.	.	12b-\	.
8e-\J)	.	.	.
.	.	12g-\J	.
=172	=172	=172	=172
(8AA\L	.	12ee-/L	.
.	.	12cc/	.
8A\	.	.	.
.	.	12f/J	.
8BB-\	.	12dd-/L	.
.	.	12b-/	.
8B-\J	.	.	.
.	.	12f/J	.
8GG\L	.	12dd-/L	.
.	.	12b-/	.
8G\	.	.	.
.	.	12e/J	.
8AA-\	.	12cc/L	.
.	.	12a-/	.
8A-\J	.	.	.
.	.	12f/J	.
=173	=173	=173	=173
8EE/L	.	12b-/L	.
.	.	12g/	.
8E/	.	.	.
.	.	12c/J	.
8FF/	.	12a-/L	.
.	.	12f/	.
8F/J)	.	.	.
.	.	12c/J	.
(8BBB-/L	.	12g/L	.
.	.	12d-/	.
8BB-/	.	.	.
.	.	12B-/J	.
8BBB/	.	12f/L	.
.	.	12d/	.
8BB/J)	.	.	.
.	.	12A-/J	.
=174	=174	=174	=174
(8CC/L	.	12f/L	.
.	.	12c/	.
8C/	.	.	.
.	.	12A-/J	.
8CC/	.	12f/L	.
.	.	12c/	.
8C/J	.	.	.
.	.	12A-/J	.
8CC/L	.	12e/L	.
.	.	12c/	.
8C/	.	.	.
.	.	12G/J	.
8CC/	.	12e/L	.
.	.	12c/	.
8C/J)	.	.	.
.	.	12G/J	.
=175	=175	=175	=175
12FF/L	.	4f/	.
12AA-/	.	.	.
12C/J	.	.	.
12FF/L	.	4r	.
12AA-/	.	.	.
12C/J	.	.	.
12FF/L	.	4a-'\ (4aa-'\	p
12AA-/	.	.	.
12D-/J	.	.	.
12FF/L	.	4a-'\ 4aa-'\)	.
12AA-/	.	.	.
12D-/J	.	.	.
=176	=176	=176	=176
12GG/L	.	4g\ (4gg\	.
12BB-/	.	.	.
12D-/J	.	.	.
12GG/L	.	4f\ 4ff\	.
12BB-/	.	.	.
12E-/J	.	.	.
12GG/L	.	4e-/ 4ee-/	.
12BB-/	.	.	.
12E-/J	.	.	.
12GG/L	.	4d-/ 4dd-/)	.
12BB-/	.	.	.
12E-/J	.	.	.
=177	=177	=177	=177
12AA-/L	.	2c/ 2cc/	.
12C/	.	.	.
12E-/J	.	.	.
12AA-/L	.	.	.
12C/	.	.	.
12E-/J	.	.	.
12AA/L	.	4f'\ (4ff'\	.
12C/	.	.	.
12F/J	.	.	.
12AA/L	.	4f'\ 4ff'\)	.
12C/	.	.	.
12F/J	.	.	.
=178	=178	=178	=178
12BB-\L	.	(4e-/ 4ee-/	.
12D-\	.	.	.
12F\J	.	.	.
12BB-\L	.	4d-/ 4dd-/	.
12D-\	.	.	.
12F\J	.	.	.
12BB-\L	.	4c/ 4cc/	.
12D-\	.	.	.
12G\J	.	.	.
12BB-\L	.	4B-/) 4b-/	.
12D-\	.	.	.
12G\J	.	.	.
=179	=179	=179	=179
12C\L	.	2a-/	.
12E-\	.	.	.
12A-\J	.	.	.
12C\L	.	.	.
12E-\	.	.	.
12A-\J	.	.	.
12C\L	.	4cc'\ (4ccc'\	.
12E-\	.	.	.
12A\J	.	.	.
12C\L	.	4cc'\ 4ccc'\)	.
12E-\	.	.	.
12A\J	.	.	.
=180	=180	=180	=180
12D-\L	.	4b-\ (4bb-\	.
12F\	.	.	.
12B-\J	.	.	.
12D-\L	.	4a-\ 4aa-\	.
12F\	.	.	.
12B-\J	.	.	.
12D\L	.	4g\ 4gg\	.
12F\	.	.	.
12B\J	.	.	.
12D\L	.	4f\ 4ff\)	.
12F\	.	.	.
12B\J	.	.	.
=181	=181	=181	=181
12C\L	.	2c/ 2cc/	.
12F\	.	.	.
12A-\J	.	.	.
12C\L	.	.	.
12F\	.	.	.
12A-\J	.	.	.
12C\L	.	(4c'/ 4cc'/	.
12F\	.	.	.
12A-\J	.	.	.
12C\L	.	4c'/) 4cc'/	.
12F\	.	.	.
12A-\J	.	.	.
=182	=182	=182	=182
12C\L	.	2c/ 2cc/	.
12E\	.	.	.
12G\J	.	.	.
12C\L	.	.	.
12E\	.	.	.
12G\J	.	.	.
12C\L	.	(4c'/ 4cc'/	.
12E\	.	.	.
12G\J	.	.	.
12C\L	.	4c'/) 4cc'/	.
12E\	.	.	.
12G\J	.	.	.
=183	=183	=183	=183
12FF/L	.	4f/	.
12AA-/	.	.	.
12C/J	.	.	.
12FF/L	.	4r	.
12AA-/	.	.	.
12C/J	.	.	.
12FF/L	.	4a-'\ (4aa-'\	p
12AA-/	.	.	.
12D-/J	.	.	.
12FF/L	.	4a-'\ 4aa-'\)	.
12AA-/	.	.	.
12D-/J	.	.	.
=184	=184	=184	=184
12GG/L	.	4g\ (4gg\	.
12BB-/	.	.	.
12D-/J	.	.	.
12GG/L	.	4f\ 4ff\	.
12BB-/	.	.	.
12D-/J	.	.	.
12GG/L	.	4e-/ 4ee-/	.
12BB-/	.	.	.
12E-/J	.	.	.
12GG/L	.	4d-/ 4dd-/)	.
12BB-/	.	.	.
12E-/J	.	.	.
=185	=185	=185	=185
12AA-/L	.	2c/ 2cc/	.
12C/	.	.	.
12E-/J	.	.	.
12AA-'/L	.	.	.
12C/	.	.	.
12E-/J	.	.	.
12AA/L	.	4f'\ (4ff'\	.
12C/	.	.	.
12F/J	.	.	.
12AA/L	.	4f'\ 4ff'\)	.
12C/	.	.	.
12F/J	.	.	.
=186	=186	=186	=186
12BB-\L	.	(4e-/ 4ee-/	.
12D-\	.	.	.
12F\J	.	.	.
12BB-\L	.	4d-/ 4dd-/	.
12D-\	.	.	.
12F\J	.	.	.
12BB-\L	.	4c/ 4cc/	.
12D-\	.	.	.
12G\J	.	.	.
12BB-\L	.	4B-/) 4b-/	.
12D-\	.	.	.
12G\J	.	.	.
=187	=187	=187	=187
12C\L	.	2a-/	.
12E-\	.	.	.
12A-\J	.	.	.
12C\L	.	.	.
12E-\	.	.	.
12A-\J	.	.	.
12C\L	.	4cc'\ (4ccc'\	.
12E-\	.	.	.
12A\J	.	.	.
12C\L	.	4cc'\ 4ccc'\)	.
12E-\	.	.	.
12A\J	.	.	.
=188	=188	=188	=188
12D-\L	.	4b-\ (4bb-\	.
12F\	.	.	.
12B-\J	.	.	.
12D-\L	.	4a-\ 4aa-\	.
12F\	.	.	.
12B-\J	.	.	.
12D\L	.	4g\ 4gg\	.
12F\	.	.	.
12B\J	.	.	.
12D\L	.	4f\ 4ff\)	.
12F\	.	.	.
12B\J	.	.	.
=189	=189	=189	=189
12C\L	.	2c/ 2cc/	.
12F\	.	.	.
12A-\J	.	.	.
12C\L	.	.	.
12F\	.	.	.
12A-\J	.	.	.
12C\L	.	(4c'/ 4cc'/	.
12F\	.	.	.
12A-\J	.	.	.
12C\L	.	4c'/) 4cc'/	.
12F\	.	.	.
12A-\J	.	.	.
=190	=190	=190	=190
12C\L	.	2c/ 2cc/	.
12E\	.	.	.
12G\J	.	.	.
12C\L	.	.	.
12E\	.	.	.
12G\J	.	.	.
12C\L	.	(4c'/ 4cc'/	.
12E\	.	.	.
12G\J	.	.	.
12C\L	.	4c'/) 4cc'/	.
12E\	.	.	.
12G\J	.	.	.
=191	=191	=191	=191
4FF/ 4F/	.	12f\L	f
.	.	12a-\	.
.	.	12cc\J	.
4r	.	12ff\L	.
.	.	12aa-\	.
.	.	12ccc\J	.
*clefG2	*clefG2	*	*
4f'/ 4a-'/ 4cc'/	.	12fff\L	.
.	.	12ccc\	.
.	.	12aa-\J	.
4f'/ 4b-'/ 4dd-'/	.	12eee\L	.
.	.	12ddd-\	.
.	.	12bb-\J	.
=192	=192	=192	=192
4f'/ 4a-'/ 4cc'/	.	12fff\L	.
.	.	12ccc\	.
.	.	12aa-\J	.
4r	.	12ff\L	.
.	.	12cc\	.
.	.	12a-\J	.
*clefF4	*clefF4	*	*
4F'\ 4A-'\ 4c'\	.	12f\L	.
.	.	12a-\	.
.	.	12cc\J	.
4C'\ 4G'\ 4c'\	.	12e\L	.
.	.	12g\	.
.	.	12cc\J	.
=193	=193	=193	=193
4F'\ 4A-'\ 4c'\	.	12f\L	.
.	.	12a-\	.
.	.	12cc\J	.
4r	.	12ff\L	.
.	.	12aa-\	.
.	.	12ccc\J	.
*clefG2	*clefG2	*	*
4f'/ 4a-'/ 4cc'/	.	12fff\L	.
.	.	12ccc\	.
.	.	12aa-\J	.
4f'/ 4b-'/ 4dd-'/	.	12eee\L	.
.	.	12ddd-\	.
.	.	12bb-\J	.
=194	=194	=194	=194
4f'/ 4a-'/ 4cc'/	.	12fff\L	.
.	.	12ccc\	.
.	.	12aa-\J	.
4r	.	12ff\L	.
.	.	12cc\	.
.	.	12a-\J	.
*clefF4	*clefF4	*	*
4F'\ 4A-'\ 4c'\	.	12f\L	.
.	.	12a-\	.
.	.	12cc\J	.
4C'\ 4G'\ 4c'\	.	12e\L	.
.	.	12g\	.
.	.	12cc\J	.
=195	=195	=195	=195
4F'\ 4A-'\ 4c'\	.	12f\L	.
.	.	12a-\	.
.	.	12cc\J	.
4r	.	12ff\L	.
.	.	12aa-\	.
.	.	12ccc\J	.
4F'\ 4A-'\ 4c'\	.	12fff\L	ff
.	.	12ccc\	.
.	.	12aa-\J	.
4F'\ 4B-'\ 4d-'\	.	12eee\L	.
.	.	12ddd-\	.
.	.	12bb-\J	.
=196	=196	=196	=196
4F'\ 4A-'\ 4c'\	.	12fff\L	.
.	.	12ccc\	.
.	.	12aa-\J	.
4r	.	12ff\L	.
.	.	12aa-\	.
.	.	12ccc\J	.
4F'\ 4A-'\ 4c'\	.	12fff\L	.
.	.	12ccc\	.
.	.	12aa-\J	.
4F'\ 4B-'\ 4d-'\	.	12eee\L	.
.	.	12ddd-\	.
.	.	12bb-\J	.
=197	=197	=197	=197
4F'\ 4A-'\ 4c'\	.	12fff\L	.
.	.	12ccc\	.
.	.	12aa-\J	.
4r	.	12ff\L	.
.	.	12cc\	.
.	.	12a-\J	.
4r	.	12f/L	.
.	.	12c/	.
.	.	12A-/J	.
12F\L	.	4r	.
12C\	.	.	.
12AA-\J	.	.	.
=198	=198	=198	=198
4FF/	.	1r;	.
4r	.	.	.
2r;	.	.	.
=	=	=	=
*-	*-	*-	*-
!!!ENC: Craig Stuart Sapp
!!!END: 2004/04/05/
!!!ONB: Not proof-read plus some note/rest interpolation errors from SharpEye

